X:1
T:Title
%%score 1 2 3
L:1/8
M:2/2
K:C
V:1 treble nm="Part_1"
V:2 treble-8 nm="Part_2"
V:3 treble-8 nm="Part_3"
V:1
 z8 | z8 | z8 | F8- | F8 | G8 | A8 | A8 | G8 | A8 | c8- | c8 | d8 | c4 c4- | c4 B4 | c8 | z4 c4 | %17
 c8 | d8 | c8 | G8 | z4 c4 | B8 | c8 | A8 | G8 | z4 c4 | B8 | d8 | c8 | G8 | z4 c4 | B8 | c8 | A8 | %35
 G4 A4- | A4 F4- | F4 E4 | F8 | A8 | _B8 | c8 | _B4 A4- | A2 G2 G4- | G4 ^F4 | G8 || D8 | D8 | G8 | %49
 A4 _B4- | B2 A2 G4 | A4 G4- | G4 ^F4 | G8 | D8 | G8 | A4 _B4- | B4 c4- | c2 _B2 B4 | A8 | G8 | %61
 F4 E4- | E4 D4- | D4 C4 | D8- | D8 | G8- | G8 | A8 | G8 | c6 _B2 | _B4 A4- | A4 F4- | F4 G4 | %74
 A4 _B4 | c6 _B2 | A2 G2 G4- | G4 F4 | G8 |] %79
V:2
 F8- | F8 | G8 | A8- | A8 | G8 | z8 | A8 | c8 | c8- | c8 | A8 | B4 c4- | c4 e4 | d8 | c8- | c8 | %17
 A8 | G8 | z4 c4 | c8 | A8 | G8 | z4 c4 | c8 | B4 c4 | A8 | G8- | G8 | z4 c4 | B4 d4 | c8 | G8 | %33
 z4 c4- | c4 B4- | B4 c4 | A8 | G8 | F8 | z4 F4 | G8 | A8 | _B4 c4- | c4 _B4 | A8 | G8 || D8 | D8 | %48
 _E8 | D4 G4 | F4 G4 | c4 _B4 | A8 | G8- | G8 | _E8 | D8 | G4 A4 | G4 _B4- | B4 c4- | c4 G4 | A8 | %62
 E4 F4 | E8 | D8 | G8- | G8 | c8- | c8 | _B8 | A8 | G4 D4 | F8 | A4 G4 | c4 d4 | c4 G4 | _B4 c4 | %77
 A8 | G8 |] %79
V:3
 F8 | D8 | E8 | D8 | D8 | E8 | D8 | F8 | C8 | z4 E4 | F8 | c8 | G4 F4 | A6 G2 | G8 | C8 | F8 | %17
 z4 c4 | B4 B4 | A8 | C8 | c8 | d8 | c6 B2 | F8 | G4 C4 | c8 | d8 | z4 B4 | A4 A4 | G8 | C8 | %32
 z4 E4 | C8 | F4 G4- | G2 F2 F4- | F4 c4- | c4 B4 | c8 | A8 | d8 | c8 | G4 C4 | F4 G4 | D8 | d8 || %46
 A8 | A8 | c4 _B4 | d6 _B2 | c4 G4 | C4 G4 | D8 | d8 | _B8- | B4 c4 | d8 | d4 c4 | d4 G4- | G4 F4 | %60
 _E8 | D4 A4 | _B4 A4- | A4 G4 | A8 | _B8 | G6 F2 | C8- | C8 | z4 G4 | F8 | _B4 d4- | d2 _B2 c4 | %73
 F4 C4 | F4 D4 | F4 G4 | _E4 C4 | D8 | d8 |] %79

